X:221
T:Tune
S:Yves Lambert Irish Melody, youtube
Z:robin.beech@mcgill.ca
M:4/4
L:1/8
K:D
dafd caec | AfdA FdAF | GBdg fAdf | edcB AABc
dafd caec | AfdA FdAF | GBdg fAce | d2ce dABc ::
fdad d'afd | ecac c'aec | BGBd gfed | edcB ABce |
dafd caec | AfdA FdAF | GBdg fAce | d2ce dABc :|
